SVG_Azure_Grouped/Data/Data collection Rule.svg

<?xml version="1.0" encoding="UTF-8" standalone="no"?>
<!-- Generated by Microsoft Visio, SVG Export Data collection Rule.svg Page-1 -->

<svg
   xmlns:dc="http://purl.org/dc/elements/1.1/"
   xmlns:cc="http://creativecommons.org/ns#"
   xmlns:rdf="http://www.w3.org/1999/02/22-rdf-syntax-ns#"
   xmlns:svg="http://www.w3.org/2000/svg"
   xmlns="http://www.w3.org/2000/svg"
   xmlns:sodipodi="http://sodipodi.sourceforge.net/DTD/sodipodi-0.dtd"
   xmlns:inkscape="http://www.inkscape.org/namespaces/inkscape"
   width="0.78737485in"
   height="0.78735679in"
   viewBox="0 0 56.690898 56.69"
   xml:space="preserve"
   class="st6"
   version="1.1"
   id="svg50"
   sodipodi:docname="Data collection Rule.svg"
   style="font-size:12px;overflow:visible;color-interpolation-filters:sRGB;fill:none;fill-rule:evenodd;stroke-linecap:square;stroke-miterlimit:3"
   inkscape:version="0.92.5 (2060ec1f9f, 2020-04-08)"><metadata
   id="metadata54"><rdf:RDF><cc:Work
       rdf:about=""><dc:format>image/svg+xml</dc:format><dc:type
         rdf:resource="http://purl.org/dc/dcmitype/StillImage" /></cc:Work></rdf:RDF></metadata><sodipodi:namedview
   pagecolor="#ffffff"
   bordercolor="#666666"
   borderopacity="1"
   objecttolerance="10"
   gridtolerance="10"
   guidetolerance="10"
   inkscape:pageopacity="0"
   inkscape:pageshadow="2"
   inkscape:window-width="640"
   inkscape:window-height="480"
   id="namedview52"
   showgrid="false"
   inkscape:zoom="1.4193119"
   inkscape:cx="37.795143"
   inkscape:cy="37.786193"
   inkscape:window-x="0"
   inkscape:window-y="0"
   inkscape:window-maximized="0"
   inkscape:current-layer="svg50" />
	<style
   type="text/css"
   id="style2">
	<![CDATA[
		.st1 {fill:url(#grad0-6);stroke:none;stroke-linecap:butt;stroke-width:34}
		.st2 {fill:url(#grad0-10);stroke:none;stroke-linecap:butt;stroke-width:34}
		.st3 {fill:#ffffff;stroke:none;stroke-linecap:butt;stroke-width:34}
		.st4 {fill:#ffffff;fill-opacity:0.8;stroke:none;stroke-linecap:butt;stroke-width:34}
		.st5 {fill:#83b9f9;stroke:none;stroke-linecap:butt;stroke-width:34}
		.st6 {fill:none;fill-rule:evenodd;font-size:12px;overflow:visible;stroke-linecap:square;stroke-miterlimit:3}
	]]>
	</style>

	<defs
   id="Patterns_And_Gradients">
		<linearGradient
   id="grad0-6"
   x1="-1.0680753e-08"
   y1="62.118668"
   x2="51.771645"
   y2="62.118668"
   gradientTransform="scale(0.91324122,1.0950009)"
   gradientUnits="userSpaceOnUse">
			<stop
   offset="0"
   stop-color="#0078d4"
   stop-opacity="1"
   id="stop4" />
			<stop
   offset="1"
   stop-color="#5ea0ef"
   stop-opacity="1"
   id="stop6" />
		</linearGradient>
		<linearGradient
   id="grad0-10"
   x1="-7.7604748e-06"
   y1="142.37085"
   x2="32.143282"
   y2="142.37085"
   gradientTransform="scale(1.3993596,0.7146126)"
   gradientUnits="userSpaceOnUse">
			<stop
   offset="0"
   stop-color="#50e6ff"
   stop-opacity="1"
   id="stop9" />
			<stop
   offset="1"
   stop-color="#32bedd"
   stop-opacity="1"
   id="stop11" />
		</linearGradient>
	</defs>
	<g
   id="g48"
   transform="translate(-34.00043,-34.0043)">
		<title
   id="title15">Page-1</title>
		<g
   id="group19511-1"
   transform="translate(34,-34.0157)">
			<title
   id="title17">Data collection Rule.19511</title>
			<g
   id="group19512-2">
				<title
   id="title19">Sheet.19512</title>
				<g
   id="shape19513-3"
   transform="translate(9.41129)">
					<title
   id="title21">Sheet.19513</title>
					<path
   d="m 0,122.82 a 1.92991,1.88981 -180 0 0 1.93,1.89 h 43.42 a 1.92991,1.88981 -180 0 0 1.93,-1.89 V 69.91 A 1.92991,1.88981 -180 0 0 45.35,68.02 H 1.93 A 1.92991,1.88981 -180 0 0 0,69.91 Z"
   class="st1"
   id="path23"
   inkscape:connector-curvature="0"
   style="fill:url(#grad0-6);stroke:none;stroke-width:34;stroke-linecap:butt" />
				</g>
				<g
   id="shape19514-7"
   transform="translate(0,-27.8488)">
					<title
   id="title26">Sheet.19514</title>
					<path
   d="m 0,123 a 1.74013,1.70398 -180 0 0 1.74,1.71 h 41.5 A 1.74013,1.70398 -180 0 0 44.98,123 v -19.55 a 1.74013,1.70398 -180 0 0 -1.74,-1.71 H 1.74 A 1.74013,1.70398 -180 0 0 0,103.45 Z"
   class="st2"
   id="path28"
   inkscape:connector-curvature="0"
   style="fill:url(#grad0-10);stroke:none;stroke-width:34;stroke-linecap:butt" />
				</g>
				<g
   id="shape19515-11"
   transform="translate(6.90891,-41.1811)">
					<title
   id="title31">Sheet.19515</title>
					<path
   d="M 30.72,123.13 H 8.79 A 0.392405,0.384252 0 0 1 8.391162,122.75205 L 8.39,121.48 a 0.395622,0.387402 0 0 1 0.395622,-0.3874 L 30.72,121.09 a 0.398838,0.390551 0 0 1 0.398838,0.3874 L 31.12,122.74 a 0.392405,0.384252 0 0 1 -0.392405,0.3874 z m -25.41,0.91 v -3.86 A 0.681885,0.667717 -180 0 0 4.628115,119.51228 L 0.68,119.51 a 0.681885,0.667717 -180 0 0 -0.681885,0.66457 L 0,124.04 a 0.678668,0.664567 -180 0 0 0.678668,0.66457 L 4.63,124.71 a 0.678668,0.664567 -180 0 0 0.681885,-0.66457 z"
   class="st3"
   id="path33"
   inkscape:connector-curvature="0"
   style="fill:#ffffff;stroke:none;stroke-width:34;stroke-linecap:butt" />
				</g>
				<g
   id="shape19516-13"
   transform="translate(6.91534,-32.9669)">
					<title
   id="title36">Sheet.19516</title>
					<path
   d="M 30.71,123.1 H 8.79 A 0.398838,0.390551 0 0 1 8.391162,122.7126 L 8.39,121.44 a 0.398838,0.390551 0 0 1 0.398838,-0.39055 L 30.71,121.05 a 0.402055,0.393701 0 0 1 0.398838,0.39055 L 31.11,122.7 a 0.402055,0.393701 0 0 1 -0.395622,0.3937 z M 4.32,120.49 H 1.03 v 3.21 h 3.29 z m 0.34,-1.01 a 0.69475,0.680315 0 0 1 0.685101,0.67402 L 5.35,124.04 a 0.688317,0.674016 0 0 1 -0.688317,0.67087 L 0.69,124.71 A 0.685101,0.670866 0 0 1 0.004899,124.03913 L 0,120.14 a 0.685101,0.670866 0 0 1 0.685101,-0.67087 z"
   class="st4"
   id="path38"
   inkscape:connector-curvature="0"
   style="fill:#ffffff;fill-opacity:0.8;stroke:none;stroke-width:34;stroke-linecap:butt" />
				</g>
				<g
   id="shape19517-15"
   transform="translate(9.41129,-6.47262)">
					<title
   id="title41">Sheet.19517</title>
					<path
   d="m 33.03,109.47 a 0.389189,0.381102 -180 0 0 -0.270181,-0.11024 0.37954,0.371654 -180 0 0 -0.376323,0.37481 L 32.38,114.42 H 0 v 5.59 h 32.38 v 4.36 a 0.37954,0.371654 -180 0 0 0.643287,0.26457 L 40.5,117.32 a 0.376323,0.368504 -180 0 0 0,-0.52284 z"
   class="st5"
   id="path43"
   inkscape:connector-curvature="0"
   style="fill:#83b9f9;stroke:none;stroke-width:34;stroke-linecap:butt" />
				</g>
			</g>
		</g>
	</g>
</svg>

<?xml version="1.0" encoding="UTF-8" standalone="no"?>
<!DOCTYPE svg PUBLIC "-//W3C//DTD SVG 1.1//EN" "http://www.w3.org/Graphics/SVG/1.1/DTD/svg11.dtd">
<!-- Generated by Microsoft Visio, SVG Export Data collection Rule.svg Page-1 -->
<svg xmlns="http://www.w3.org/2000/svg" xmlns:xlink="http://www.w3.org/1999/xlink" xmlns:ev="http://www.w3.org/2001/xml-events"
		width="1.73185in" height="1.73206in" viewBox="0 0 124.693 124.709" xml:space="preserve" color-interpolation-filters="sRGB"
		class="st6">
	<style type="text/css">
	<![CDATA[
		.st1 {fill:url(#grad0-6);stroke:none;stroke-linecap:butt;stroke-width:34}
		.st2 {fill:url(#grad0-10);stroke:none;stroke-linecap:butt;stroke-width:34}
		.st3 {fill:#ffffff;stroke:none;stroke-linecap:butt;stroke-width:34}
		.st4 {fill:#ffffff;fill-opacity:0.8;stroke:none;stroke-linecap:butt;stroke-width:34}
		.st5 {fill:#83b9f9;stroke:none;stroke-linecap:butt;stroke-width:34}
		.st6 {fill:none;fill-rule:evenodd;font-size:12px;overflow:visible;stroke-linecap:square;stroke-miterlimit:3}
	]]>
	</style>

	<defs id="Patterns_And_Gradients">
		<linearGradient id="grad0-6" x1="0" y1="0" x2="1" y2="0" gradientTransform="rotate(-90 0.5 0.5)">
			<stop offset="0" stop-color="#0078d4" stop-opacity="1"/>
			<stop offset="1" stop-color="#5ea0ef" stop-opacity="1"/>
		</linearGradient>
		<linearGradient id="grad0-10" x1="0" y1="0" x2="1" y2="0" gradientTransform="rotate(90 0.5 0.5)">
			<stop offset="0" stop-color="#50e6ff" stop-opacity="1"/>
			<stop offset="1" stop-color="#32bedd" stop-opacity="1"/>
		</linearGradient>
	</defs>
	<g>
		<title>Page-1</title>
		<g id="group19062-1" transform="translate(34,-34.0157)">
			<title>Data collection Rule.19062</title>
			<g id="group19063-2">
				<title>Sheet.19063</title>
				<g id="shape19064-3" transform="translate(9.41129,1.42109E-14)">
					<title>Sheet.19064</title>
					<path d="M0 122.82 A1.92991 1.88981 -180 0 0 1.93 124.71 L45.35 124.71 A1.92991 1.88981 -180 0 0 47.28 122.82
								 L47.28 69.91 A1.92991 1.88981 -180 0 0 45.35 68.02 L1.93 68.02 A1.92991 1.88981 -180 0 0 -0 69.91
								 L0 122.82 Z" class="st1"/>
				</g>
				<g id="shape19065-7" transform="translate(0,-27.8488)">
					<title>Sheet.19065</title>
					<path d="M0 123 A1.74013 1.70398 -180 0 0 1.74 124.71 L43.24 124.71 A1.74013 1.70398 -180 0 0 44.98 123 L44.98
								 103.45 A1.74013 1.70398 -180 0 0 43.24 101.74 L1.74 101.74 A1.74013 1.70398 -180 0 0 0 103.45 L0
								 123 Z" class="st2"/>
				</g>
				<g id="shape19066-11" transform="translate(6.90891,-41.1811)">
					<title>Sheet.19066</title>
					<path d="M30.72 123.13 L8.79 123.13 a0.392405 0.384252 0 0 1 -0.398838 -0.377953 L8.39 121.48 a0.395622 0.387402
								 0 0 1 0.395622 -0.387402 L30.72 121.09 a0.398838 0.390551 0 0 1 0.398838 0.387402 L31.12 122.74
								 a0.392405 0.384252 0 0 1 -0.392405 0.387402 L30.72 123.13 ZM5.31 124.04 L5.31 120.18 a0.681885 0.667717
								 -180 0 0 -0.681885 -0.667717 L0.68 119.51 a0.681885 0.667717 -180 0 0 -0.681885 0.664567 L0 124.04
								 a0.678668 0.664567 -180 0 0 0.678668 0.664567 L4.63 124.71 a0.678668 0.664567 -180 0 0 0.681885
								 -0.664567 L5.31 124.04 Z" class="st3"/>
				</g>
				<g id="shape19067-13" transform="translate(6.91534,-32.9669)">
					<title>Sheet.19067</title>
					<path d="M30.71 123.1 L8.79 123.1 a0.398838 0.390551 0 0 1 -0.398838 -0.387402 L8.39 121.44 a0.398838 0.390551
								 0 0 1 0.398838 -0.390551 L30.71 121.05 a0.402055 0.393701 0 0 1 0.398838 0.390551 L31.11 122.7 a0.402055
								 0.393701 0 0 1 -0.395622 0.393701 L30.71 123.1 ZM4.32 120.49 L1.03 120.49 L1.03 123.7 L4.32 123.7
								 L4.32 120.49 ZM4.66 119.48 a0.69475 0.680315 0 0 1 0.685101 0.674016 L5.35 124.04 a0.688317 0.674016
								 0 0 1 -0.688317 0.670866 L0.69 124.71 a0.685101 0.670866 0 0 1 -0.685101 -0.670866 L0 120.14 a0.685101
								 0.670866 0 0 1 0.685101 -0.670866 L4.66 119.48 Z" class="st4"/>
				</g>
				<g id="shape19068-15" transform="translate(9.41129,-6.47262)">
					<title>Sheet.19068</title>
					<path d="M33.03 109.47 a0.389189 0.381102 -180 0 0 -0.270181 -0.110236 a0.37954 0.371654 -180 0 0 -0.376323 0.374803
								 L32.38 114.42 L0 114.42 L0 120.01 L32.38 120.01 L32.38 124.37 a0.37954 0.371654 -180 0 0 0.643287
								 0.264567 L40.5 117.32 a0.376323 0.368504 -180 0 0 -1.13687E-13 -0.522835 L33.03 109.47 Z"
							class="st5"/>
				</g>
			</g>
		</g>
	</g>
</svg>
